src/assets/icons/letters,simple,sans-d.svg

<svg width="48" height="48" viewBox="0 0 48 48" fill="none" xmlns="http://www.w3.org/2000/svg">
<rect opacity="0.2" x="5" y="5" width="38" height="38" rx="4" fill="black"/>
<path d="M22.6748 36C29.5442 36 33.7054 31.7507 33.7054 24.7053C33.7054 17.6818 29.5442 13.4545 22.7409 13.4545H14.6827V36H22.6748ZM19.4494 31.9158V17.5387H22.4877C26.715 17.5387 28.9497 19.6964 28.9497 24.7053C28.9497 29.7362 26.715 31.9158 22.4767 31.9158H19.4494Z" fill="black"/>
</svg>

<svg xmlns="http://www.w3.org/2000/svg" width="48" height="48" fill="none" viewBox="0 0 48 48">
  <rect width="38" height="38" x="5" y="5" fill="#000" opacity=".2" rx="4"/>
  <path fill="#000" d="M22.675 36c6.87 0 11.03-4.25 11.03-11.295 0-7.023-4.16-11.25-10.964-11.25h-8.058V36h7.992zm-3.226-4.084V17.539h3.039c4.227 0 6.462 2.157 6.462 7.166 0 5.031-2.235 7.21-6.473 7.21h-3.028z"/>
</svg>
